X:1

T:Battle of Culloden, Them

M:C|

L:1/8

R:Reel

S:Henry Livingston’s manuscript copybook, late 18th century

Z:AK/Fiddler’s Companion

K:D

=c2|BGAG FGA=c|BGAF BEE=c|BGAG FGAg|fdec dD D:|

|:f>gaf g>abg|f>gaf beeg|f>gaf g>abg|1 fdec dD D :|2 fdec dD D=c||

 

BATTLE OF FALKIRK [1], THE. Scottish, Fiddle Pibroch. Composed by James Oswald in the late 1750's, and published in his Caledonian Pocket Companion. A 'pibroch' is a ceremonial form often used to celebrate or lament an event, and is usually meant for the Scottish great‑pipes; in this case a fiddle was specified. The Battle of Falkirk was fought in the year 1298 and marked the defeat of the Scottish hero William Wallace by the forces of the English king Edward I.

 

BATTLE OF FALKIRK [2], THE.  Scottish, March (4/4 time). A Mixolydian. Standard tuning. AABB. Composed by Scots fiddler-composer J. Scott Skinner (1843-1927). Skinner (Harp and Claymore Collection), 1904; pg. 26.

